X: 1
T: Gan Ainm
M: 4/4
L: 1/8
R: reel
K: Gmin
|:DGGB ABGB|Aff=e fcAc|dggf ~g3a|gdad fdcA|
DGGB ABGB|Aff=e fcAc|B2BA ~B3c|1 dg{a}gf d3c:|2 dg{a}gf d3f||
|:g2{a}gf gd(3ddd||gdad gd=eg|fBBA ~B3c|dBfB dBfB|
g2{a}gf gd(3ddd|gdad gd=eg|fB{d}BA ~B3c|1 dg{a}gf d3f:|2 dg{a}gf d3c||
